X: 398
T: À Travers La Vitre
R: reel
M: 4/4
K: Dmajor
F2AF BFAF|FFBF AFFF|F2AF FBAF|GBAG FDDE|
F2AF BFAF|FFBF AFFF|F2AF FBAc|1 dfec dBAG:|2 dfec dABc||
d3e fedf|eAA^G A3B|=c2AB cdeg|~f2e^c dBAc|
dcde fedf|eAA^G A3B|=c2AB cdeg|1 fge^c dBAc:|2 ~f2ec dBAG||

